/* XPM */
static char *brick[] = {
"64 64 4 1",
". c #4d280eff",
"# c #d64d0dff",
"o c #220e01ff",
"X c #000000ff",
"################################################################",
"...............###############ooooooooooooooXXXXXXXXXXXXXXXXXXXX",
"...............###############ooooooooooooooXXXXXXXXXXXXXXXXXXXX",
"...............###############ooooooooooooooXXXXXXXXXXXXXXXXXXXX",
"...............###############ooooooooooooooXXXXXXXXXXXXXXXXXXXX",
"oooooooooooooo################...............###################",
"oooooooooooooo################...............###################",
"oooooooooooooo################...............###################",
"oooooooooooooo################...............###################",
"XXXXXXXXXXXXXXooooooooooooooo################...................",
"XXXXXXXXXXXXXXooooooooooooooo################...................",
"XXXXXXXXXXXXXXooooooooooooooo################...................",
"XXXXXXXXXXXXXXooooooooooooooo################...................",
"##################XXXXXXXXXXXXooooooooooooooo###################",
"##################XXXXXXXXXXXXooooooooooooooo###################",
"##################XXXXXXXXXXXXooooooooooooooo###################",
"##################XXXXXXXXXXXXooooooooooooooo###################",
"...............###############ooooooooooooooXXXXXXXXXXXXXXXXXXXX",
"...............###############ooooooooooooooXXXXXXXXXXXXXXXXXXXX",
"...............###############ooooooooooooooXXXXXXXXXXXXXXXXXXXX",
"...............###############ooooooooooooooXXXXXXXXXXXXXXXXXXXX",
"oooooooooooooo################...............###################",
"oooooooooooooo################...............###################",
"oooooooooooooo################...............###################",
"oooooooooooooo################...............###################",
"XXXXXXXXXXXXXXooooooooooooooo################...................",
"XXXXXXXXXXXXXXooooooooooooooo################...................",
"XXXXXXXXXXXXXXooooooooooooooo################...................",
"XXXXXXXXXXXXXXooooooooooooooo################...................",
"##################XXXXXXXXXXXXooooooooooooooo###################",
"##################XXXXXXXXXXXXooooooooooooooo###################",
"##################XXXXXXXXXXXXooooooooooooooo###################",
"##################XXXXXXXXXXXXooooooooooooooo###################",
"...............###############ooooooooooooooXXXXXXXXXXXXXXXXXXXX",
"...............###############ooooooooooooooXXXXXXXXXXXXXXXXXXXX",
"...............###############ooooooooooooooXXXXXXXXXXXXXXXXXXXX",
"...............###############ooooooooooooooXXXXXXXXXXXXXXXXXXXX",
"oooooooooooooo################...............###################",
"oooooooooooooo################...............###################",
"oooooooooooooo################...............###################",
"oooooooooooooo################...............###################",
"XXXXXXXXXXXXXXooooooooooooooo################...................",
"XXXXXXXXXXXXXXooooooooooooooo################...................",
"XXXXXXXXXXXXXXooooooooooooooo################...................",
"XXXXXXXXXXXXXXooooooooooooooo################...................",
"##################XXXXXXXXXXXXooooooooooooooo###################",
"##################XXXXXXXXXXXXooooooooooooooo###################",
"##################XXXXXXXXXXXXooooooooooooooo###################",
"##################XXXXXXXXXXXXooooooooooooooo###################",
"...............###############ooooooooooooooXXXXXXXXXXXXXXXXXXXX",
"...............###############ooooooooooooooXXXXXXXXXXXXXXXXXXXX",
"...............###############ooooooooooooooXXXXXXXXXXXXXXXXXXXX",
"...............###############ooooooooooooooXXXXXXXXXXXXXXXXXXXX",
"oooooooooooooo################...............###################",
"oooooooooooooo################...............###################",
"oooooooooooooo################...............###################",
"oooooooooooooo################...............###################",
"XXXXXXXXXXXXXXooooooooooooooo################...................",
"XXXXXXXXXXXXXXooooooooooooooo################...................",
"XXXXXXXXXXXXXXooooooooooooooo################...................",
"XXXXXXXXXXXXXXooooooooooooooo################...................",
"##################XXXXXXXXXXXXooooooooooooooo###################",
"##################XXXXXXXXXXXXooooooooooooooo###################",
"##################XXXXXXXXXXXXooooooooooooooo###################",
"##################XXXXXXXXXXXXooooooooooooooo###################"
};