/* XPM */
static char *metal[] = {
"64 64 2 1",
". c #000000ff",
"# c #5f0202ff",
"................................................................",
"################################################################",
"################################################################",
"................................................................",
"................................................................",
"################################################################",
"################################################################",
"................................................................",
"................................................................",
"################################################################",
"################################################################",
"................................................................",
"................................................................",
"################################################################",
"################################################################",
"................................................................",
"................................................................",
"################################################################",
"################################################################",
"................................................................",
"................................................................",
"################################################################",
"################################################################",
"................................................................",
"................................................................",
"################################################################",
"################################################################",
"................................................................",
"................................................................",
"################################################################",
"################################################################",
"................................................................",
"................................................................",
"################################################################",
"################################################################",
"................................................................",
"................................................................",
"################################################################",
"################################################################",
"................................................................",
"................................................................",
"################################################################",
"################################################################",
"................................................................",
"................................................................",
"################################################################",
"################################################################",
"................................................................",
"................................................................",
"################################################################",
"################################################################",
"................................................................",
"................................................................",
"################################################################",
"################################################################",
"................................................................",
"................................................................",
"################################################################",
"################################################################",
"................................................................",
"................................................................",
"################################################################",
"################################################################",
"................................................................"
};